public/images/dev33.svg

<svg width="100" height="100" viewBox="0 0 100 100" fill="none" xmlns="http://www.w3.org/2000/svg">
<path d="M17.34 44.6559L18.22 44.6756L20.6 42.3276L20.72 41.341C18.8 39.7032 16.34 38.6969 13.62 38.6969C8.70003 38.6969 4.56003 41.9921 3.34003 46.4515C3.60003 46.2739 4.16003 46.412 4.16003 46.412L8.90003 45.6425C8.90003 45.6425 9.14003 45.2478 9.26003 45.2676C11.36 42.9787 14.9 42.7222 17.34 44.6559Z" fill="#EA4335"/>
<path d="M23.92 46.4712C23.38 44.498 22.26 42.7222 20.7 41.3607L17.34 44.6559C18.74 45.7609 19.54 47.4381 19.54 49.1942V49.7861C21.18 49.7861 22.5 51.0884 22.5 52.7064C22.5 54.3244 21.18 55.6267 19.54 55.6267H13.64L13.04 56.2186V59.7309L13.64 60.3031H19.56C23.8 60.2834 27.24 56.8895 27.26 52.7064C27.24 50.1216 25.92 47.8327 23.92 46.4712Z" fill="#4285F4"/>
<path d="M7.69998 60.3031H13.62V55.6267H7.69998C7.27998 55.6267 6.85998 55.528 6.47998 55.3702L5.61998 55.6267L3.23998 57.9748L3.03998 58.764C4.37998 59.7703 6.01998 60.3228 7.69998 60.3031Z" fill="#34A853"/>
<path d="M7.7 45.1097C3.44 45.1294 0 48.5233 0 52.7064C0 55.0742 1.12 57.3236 3.06 58.764L6.5 55.3702C5.44 54.8966 4.76 53.8508 4.76 52.7064C4.76 51.0884 6.08 49.7861 7.72 49.7861C8.88 49.7861 9.94 50.457 10.42 51.5028L13.86 48.1089C12.42 46.2936 10.2 45.1294 7.7 45.1097Z" fill="#FBBC05"/>
<path d="M40.82 48.5233C39.2 48.5233 37.82 47.9511 36.64 46.8264C35.48 45.7017 34.88 44.3402 34.88 42.7616C34.88 41.1831 35.46 39.8216 36.64 38.6969C37.82 37.5722 39.2 37 40.82 37C42.32 36.9803 43.76 37.5525 44.82 38.5785L43.7 39.6835C42.92 38.9534 41.9 38.5391 40.82 38.5588C39.66 38.5588 38.66 38.9732 37.84 39.7822C37.04 40.5714 36.6 41.6369 36.62 42.7419C36.62 43.9061 37.02 44.8927 37.84 45.7017C38.62 46.5107 39.7 46.9448 40.82 46.925C42 46.925 42.98 46.5501 43.78 45.7806C44.24 45.3268 44.54 44.6559 44.64 43.8074H40.82V42.2289H46.2C46.26 42.5051 46.28 42.8406 46.28 43.2155C46.28 44.7545 45.82 45.9976 44.9 46.9053C43.84 47.9905 42.5 48.5233 40.82 48.5233ZM53.32 47.4775C52.58 48.1879 51.7 48.5233 50.64 48.5233C49.58 48.5233 48.7 48.1681 47.96 47.4775C47.22 46.7869 46.86 45.8792 46.86 44.8335C46.86 43.7877 47.22 42.8998 47.96 42.1894C48.7 41.4791 49.58 41.1437 50.64 41.1437C51.7 41.1437 52.58 41.4988 53.32 42.1894C54.06 42.88 54.42 43.7877 54.42 44.8335C54.42 45.8792 54.04 46.7672 53.32 47.4775ZM49.14 46.4317C49.52 46.8461 50.06 47.0829 50.64 47.0631C51.22 47.0631 51.72 46.8461 52.14 46.4317C52.56 45.9976 52.76 45.4649 52.76 44.8137C52.76 44.1626 52.56 43.6101 52.14 43.1957C51.72 42.7814 51.22 42.5643 50.64 42.5643C50.08 42.5643 49.52 42.7814 49.14 43.1957C48.72 43.6101 48.52 44.1626 48.52 44.8137C48.5 45.4649 48.72 45.9976 49.14 46.4317ZM61.54 47.4775C60.8 48.1879 59.92 48.5233 58.86 48.5233C57.8 48.5233 56.92 48.1681 56.18 47.4775C55.44 46.7869 55.08 45.8792 55.08 44.8335C55.08 43.7877 55.44 42.8998 56.18 42.1894C56.92 41.4791 57.8 41.1437 58.86 41.1437C59.92 41.1437 60.8 41.4988 61.54 42.1894C62.28 42.88 62.64 43.7877 62.64 44.8335C62.64 45.8792 62.28 46.7672 61.54 47.4775ZM57.38 46.4317C57.76 46.8461 58.3 47.0829 58.88 47.0631C59.46 47.0631 59.96 46.8461 60.38 46.4317C60.8 45.9976 61 45.4649 61 44.8137C61 44.1626 60.8 43.6101 60.38 43.1957C59.96 42.7814 59.46 42.5643 58.88 42.5643C58.32 42.5643 57.76 42.7814 57.38 43.1957C56.96 43.6101 56.76 44.1626 56.76 44.8137C56.74 45.4649 56.96 45.9976 57.38 46.4317ZM66.96 51.8579C66.12 51.8579 65.42 51.6409 64.86 51.1871C64.3 50.753 63.88 50.2399 63.64 49.648L65.08 49.056C65.24 49.4112 65.46 49.7269 65.8 49.9834C66.14 50.2399 66.52 50.3781 66.98 50.3781C67.6 50.3781 68.1 50.1807 68.46 49.8256C68.82 49.4507 69 48.9179 69 48.2076V47.6748H68.94C68.48 48.2273 67.82 48.5233 66.96 48.5233C66 48.5233 65.16 48.1681 64.44 47.438C63.74 46.7474 63.34 45.8003 63.36 44.8137C63.34 43.8272 63.74 42.88 64.44 42.1697C65.16 41.4396 66 41.0845 66.96 41.0845C67.38 41.0845 67.78 41.1634 68.12 41.3212C68.46 41.4791 68.74 41.6764 68.94 41.9132H69V41.3212H70.56V47.9905C70.56 49.2928 70.22 50.2597 69.56 50.8911C68.86 51.562 68 51.8777 66.96 51.8579ZM67.08 47.0631C67.64 47.0631 68.16 46.8461 68.52 46.4317C68.9 45.9976 69.1 45.4649 69.1 44.8335C69.1 44.1823 68.9 43.6496 68.52 43.2155C68.16 42.8011 67.64 42.5643 67.08 42.5643C66.5 42.5643 66 42.7814 65.6 43.2155C65.2 43.6496 64.98 44.1823 64.98 44.8335C64.98 45.4649 65.18 45.9976 65.6 46.4317C66.02 46.8658 66.5 47.0631 67.08 47.0631ZM73.34 37.3946V48.3062H71.68V37.3946H73.34ZM77.86 48.5233C76.8 48.5233 75.9 48.1681 75.2 47.4578C74.48 46.7474 74.14 45.8595 74.14 44.8137C74.14 43.7285 74.48 42.8406 75.18 42.15C75.84 41.4791 76.74 41.0845 77.7 41.1042C78.16 41.1042 78.58 41.1831 78.96 41.341C79.32 41.4791 79.66 41.6961 79.92 41.9724C80.16 42.2092 80.36 42.4459 80.54 42.7222C80.68 42.959 80.8 43.1957 80.92 43.4523L81.1 43.8666L76.08 45.9187C76.46 46.6685 77.08 47.0434 77.9 47.0434C78.66 47.0434 79.28 46.708 79.76 46.0174L81.04 46.8658C80.76 47.2802 80.36 47.6748 79.82 48.0103C79.26 48.3654 78.62 48.5233 77.86 48.5233ZM75.76 44.6953L79.12 43.3141C79.02 43.0774 78.86 42.88 78.58 42.7419C78.32 42.6038 78.02 42.5249 77.72 42.5249C77.24 42.5249 76.78 42.7222 76.36 43.1168C75.94 43.5312 75.74 44.0442 75.76 44.6953Z" fill="#5F6368"/>
<path d="M40.6 56.9684C40.6 57.955 40.32 58.7048 39.78 59.2178C39.22 59.7309 38.44 59.9874 37.4 59.9874H35.72V54.0482H37.58C38.54 54.0482 39.28 54.3047 39.82 54.8177C40.32 55.3307 40.6 56.0411 40.6 56.9684ZM39.56 57.0079C39.56 55.5872 38.88 54.8769 37.54 54.8769H36.68V59.1981H37.38C38.82 59.1784 39.56 58.4483 39.56 57.0079Z" fill="#5F6368"/>
<path d="M43.78 60.0861C43.08 60.0861 42.52 59.8887 42.12 59.4744C41.72 59.06 41.52 58.5075 41.52 57.7972C41.52 57.0671 41.7 56.4949 42.08 56.0608C42.46 55.6464 42.96 55.4294 43.6 55.4294C44.2 55.4294 44.68 55.607 45.02 55.9621C45.36 56.3173 45.54 56.8106 45.54 57.442V57.955H42.5C42.52 58.3891 42.64 58.7246 42.86 58.9613C43.08 59.1981 43.4 59.3165 43.82 59.3165C44.08 59.3165 44.34 59.2968 44.58 59.2376C44.82 59.1784 45.06 59.0995 45.32 58.9811V59.7506C45.08 59.869 44.84 59.9479 44.6 59.9874C44.36 60.0663 44.08 60.0861 43.78 60.0861ZM43.6 56.1397C43.3 56.1397 43.04 56.2384 42.86 56.4357C42.68 56.633 42.56 56.9093 42.52 57.2842H44.6C44.6 56.9093 44.5 56.633 44.32 56.4357C44.14 56.2384 43.9 56.1397 43.6 56.1397Z" fill="#5F6368"/>
<path d="M47.68 60.0071L45.94 55.5083H46.96L47.88 58.1326C48.04 58.5667 48.14 58.9219 48.16 59.1981H48.2C48.22 59.0008 48.32 58.6456 48.48 58.1326L49.4 55.5083H50.44L48.7 60.0071H47.68Z" fill="#5F6368"/>
<path d="M53.16 60.0861C52.46 60.0861 51.9 59.8887 51.5 59.4744C51.1 59.06 50.9 58.5075 50.9 57.7972C50.9 57.0671 51.08 56.4949 51.46 56.0608C51.84 55.6464 52.34 55.4294 52.98 55.4294C53.58 55.4294 54.06 55.607 54.4 55.9621C54.74 56.3173 54.92 56.8106 54.92 57.442V57.955H51.88C51.9 58.3891 52.02 58.7246 52.24 58.9613C52.46 59.1981 52.78 59.3165 53.2 59.3165C53.46 59.3165 53.72 59.2968 53.96 59.2376C54.2 59.1784 54.44 59.0995 54.7 58.9811V59.7506C54.46 59.869 54.22 59.9479 53.98 59.9874C53.74 60.0663 53.46 60.0861 53.16 60.0861ZM52.98 56.1397C52.68 56.1397 52.42 56.2384 52.24 56.4357C52.06 56.633 51.94 56.9093 51.9 57.2842H53.96C53.96 56.9093 53.86 56.633 53.68 56.4357C53.52 56.2384 53.28 56.1397 52.98 56.1397Z" fill="#5F6368"/>
<path d="M57 60.0071H56.04V53.6732H57V60.0071Z" fill="#5F6368"/>
<path d="M62.42 57.738C62.42 58.468 62.22 59.0403 61.84 59.4546C61.46 59.869 60.92 60.0663 60.24 60.0663C59.82 60.0663 59.44 59.9676 59.12 59.7901C58.8 59.5927 58.54 59.3362 58.36 58.9811C58.18 58.6259 58.1 58.2115 58.1 57.738C58.1 57.0079 58.28 56.4357 58.66 56.0213C59.04 55.607 59.58 55.4096 60.26 55.4096C60.92 55.4096 61.44 55.6267 61.82 56.041C62.24 56.4751 62.42 57.0276 62.42 57.738ZM59.1 57.738C59.1 58.7837 59.48 59.2968 60.26 59.2968C61.02 59.2968 61.42 58.7837 61.42 57.738C61.42 56.7119 61.04 56.1989 60.26 56.1989C59.86 56.1989 59.56 56.337 59.38 56.5935C59.2 56.8698 59.1 57.2447 59.1 57.738Z" fill="#5F6368"/>
<path d="M65.8601 60.086C65.2801 60.086 64.8401 59.8887 64.5201 59.4744H64.4601C64.5001 59.8493 64.5201 60.086 64.5201 60.165V62H63.5601V55.5083H64.3401C64.3601 55.5872 64.4001 55.7845 64.4801 56.1002H64.5201C64.8201 55.6464 65.2801 55.4096 65.8801 55.4096C66.4401 55.4096 66.9001 55.607 67.2001 56.0213C67.5201 56.4357 67.6801 57.0079 67.6801 57.738C67.6801 58.468 67.5201 59.0403 67.2001 59.4546C66.8601 59.869 66.4201 60.086 65.8601 60.086ZM65.6201 56.1989C65.2401 56.1989 64.9601 56.3173 64.7801 56.5343C64.6001 56.7514 64.5201 57.1066 64.5201 57.5999V57.738C64.5201 58.2905 64.6001 58.6851 64.7801 58.9219C64.9601 59.1587 65.2401 59.2968 65.6401 59.2968C65.9801 59.2968 66.2401 59.1587 66.4201 58.8824C66.6001 58.6062 66.7001 58.2313 66.7001 57.7182C66.7001 57.2052 66.6001 56.8303 66.4401 56.5738C66.2201 56.337 65.9601 56.1989 65.6201 56.1989Z" fill="#5F6368"/>
<path d="M70.78 60.0861C70.08 60.0861 69.52 59.8887 69.12 59.4744C68.72 59.06 68.52 58.5075 68.52 57.7972C68.52 57.0671 68.7 56.4949 69.08 56.0608C69.46 55.6464 69.96 55.4294 70.6 55.4294C71.2 55.4294 71.68 55.607 72.02 55.9621C72.36 56.3173 72.54 56.8106 72.54 57.442V57.955H69.5C69.52 58.3891 69.64 58.7246 69.86 58.9613C70.08 59.1981 70.4 59.3165 70.82 59.3165C71.08 59.3165 71.34 59.2968 71.58 59.2376C71.82 59.1784 72.06 59.0995 72.32 58.9811V59.7506C72.08 59.869 71.84 59.9479 71.6 59.9874C71.38 60.0663 71.1 60.0861 70.78 60.0861ZM70.62 56.1397C70.32 56.1397 70.06 56.2384 69.88 56.4357C69.7 56.633 69.58 56.9093 69.54 57.2842H71.6C71.6 56.9093 71.5 56.633 71.32 56.4357C71.16 56.2384 70.92 56.1397 70.62 56.1397Z" fill="#5F6368"/>
<path d="M75.9801 55.4294C76.1801 55.4294 76.3401 55.4491 76.4601 55.4688L76.3601 56.3568C76.2201 56.3173 76.0801 56.3173 75.9401 56.3173C75.5601 56.3173 75.2401 56.4357 75.0001 56.6922C74.7601 56.9487 74.6401 57.2644 74.6401 57.6591V60.0071H73.6801V55.5083H74.4401L74.5601 56.2976H74.6001C74.7601 56.0213 74.9401 55.824 75.2001 55.6662C75.4401 55.5083 75.7001 55.4294 75.9801 55.4294Z" fill="#5F6368"/>
<path d="M81.68 60.0071H80.7V54.8966H78.92V54.0679H83.44V54.8966H81.66V60.0071H81.68Z" fill="#5F6368"/>
<path d="M88.32 57.738C88.32 58.468 88.12 59.0403 87.74 59.4546C87.36 59.869 86.82 60.0663 86.14 60.0663C85.72 60.0663 85.34 59.9676 85.02 59.7901C84.7 59.5927 84.44 59.3362 84.26 58.9811C84.08 58.6259 84 58.2115 84 57.738C84 57.0079 84.18 56.4357 84.56 56.0213C84.94 55.607 85.48 55.4096 86.16 55.4096C86.82 55.4096 87.34 55.6267 87.72 56.041C88.12 56.4751 88.32 57.0276 88.32 57.738ZM85 57.738C85 58.7837 85.38 59.2968 86.16 59.2968C86.92 59.2968 87.32 58.7837 87.32 57.738C87.32 56.7119 86.94 56.1989 86.16 56.1989C85.76 56.1989 85.46 56.337 85.28 56.5935C85.08 56.8698 85 57.2447 85 57.738Z" fill="#5F6368"/>
<path d="M93.48 57.738C93.48 58.468 93.28 59.0403 92.9 59.4546C92.52 59.869 91.98 60.0663 91.3 60.0663C90.88 60.0663 90.5 59.9676 90.18 59.7901C89.86 59.5927 89.6 59.3362 89.42 58.9811C89.24 58.6259 89.16 58.2115 89.16 57.738C89.16 57.0079 89.34 56.4357 89.72 56.0213C90.1 55.607 90.64 55.4096 91.32 55.4096C91.98 55.4096 92.5 55.6267 92.88 56.041C93.28 56.4751 93.48 57.0276 93.48 57.738ZM90.16 57.738C90.16 58.7837 90.54 59.2968 91.32 59.2968C92.08 59.2968 92.48 58.7837 92.48 57.738C92.48 56.7119 92.1 56.1989 91.32 56.1989C90.92 56.1989 90.62 56.337 90.44 56.5935C90.24 56.8698 90.16 57.2447 90.16 57.738Z" fill="#5F6368"/>
<path d="M95.56 60.0071H94.6V53.6732H95.56V60.0071Z" fill="#5F6368"/>
<path d="M100 58.7246C100 59.1587 99.84 59.4941 99.52 59.7309C99.2 59.9677 98.74 60.0861 98.12 60.0861C97.52 60.0861 97.02 59.9874 96.66 59.8098V58.9811C97.2 59.2179 97.7 59.356 98.16 59.356C98.76 59.356 99.06 59.1784 99.06 58.8232C99.06 58.7048 99.02 58.6062 98.96 58.547C98.9 58.4681 98.78 58.3891 98.64 58.3102C98.48 58.2313 98.28 58.1326 98 58.034C97.48 57.8366 97.12 57.6393 96.94 57.4223C96.76 57.225 96.66 56.9685 96.66 56.633C96.66 56.2384 96.82 55.9424 97.14 55.7451C97.46 55.528 97.88 55.4294 98.42 55.4294C98.96 55.4294 99.46 55.528 99.94 55.7451L99.62 56.4554C99.12 56.2581 98.72 56.1595 98.38 56.1595C97.86 56.1595 97.62 56.2976 97.62 56.5935C97.62 56.7317 97.68 56.8501 97.82 56.9487C97.96 57.0474 98.24 57.1855 98.7 57.3434C99.08 57.4815 99.34 57.6196 99.52 57.738C99.7 57.8564 99.82 57.9945 99.9 58.1523C99.96 58.3102 100 58.5075 100 58.7246Z" fill="#5F6368"/>
</svg>

<svg xmlns="http://www.w3.org/2000/svg" width="100" height="100" fill="none"><path fill="#EA4335" d="m17.34 44.656.88.02 2.38-2.348.12-.987c-1.92-1.638-4.38-2.644-7.1-2.644-4.92 0-9.06 3.295-10.28 7.755.26-.178.82-.04.82-.04l4.74-.77s.24-.394.36-.374c2.1-2.29 5.64-2.546 8.08-.612"/><path fill="#4285F4" d="M23.92 46.471a10.45 10.45 0 0 0-3.22-5.11l-3.36 3.295a5.78 5.78 0 0 1 2.2 4.538v.592c1.64 0 2.96 1.302 2.96 2.92s-1.32 2.92-2.96 2.92h-5.9l-.6.593v3.512l.6.572h5.92c4.24-.02 7.68-3.413 7.7-7.597a7.61 7.61 0 0 0-3.34-6.235"/><path fill="#34A853" d="M7.7 60.303h5.92v-4.676H7.7c-.42 0-.84-.099-1.22-.257l-.86.257-2.38 2.348-.2.789a7.63 7.63 0 0 0 4.66 1.54"/><path fill="#FBBC05" d="M7.7 45.11c-4.26.02-7.7 3.413-7.7 7.596a7.54 7.54 0 0 0 3.06 6.058L6.5 55.37a2.93 2.93 0 0 1-1.74-2.664c0-1.618 1.32-2.92 2.96-2.92 1.16 0 2.22.671 2.7 1.717l3.44-3.394a7.92 7.92 0 0 0-6.16-3"/><path fill="#5F6368" d="M40.82 48.523c-1.62 0-3-.572-4.18-1.697-1.16-1.124-1.76-2.486-1.76-4.064 0-1.579.58-2.94 1.76-4.065S39.2 37 40.82 37c1.5-.02 2.94.553 4 1.578l-1.12 1.105a4.1 4.1 0 0 0-2.88-1.124c-1.16 0-2.16.414-2.98 1.223-.8.79-1.24 1.855-1.22 2.96 0 1.164.4 2.15 1.22 2.96a4.03 4.03 0 0 0 2.98 1.223c1.18 0 2.16-.375 2.96-1.144.46-.454.76-1.125.86-1.974h-3.82V42.23h5.38c.06.276.08.612.08.986 0 1.54-.46 2.783-1.38 3.69-1.06 1.085-2.4 1.618-4.08 1.618m12.5-1.046c-.74.71-1.62 1.046-2.68 1.046s-1.94-.355-2.68-1.046c-.74-.69-1.1-1.598-1.1-2.643 0-1.046.36-1.934 1.1-2.645.74-.71 1.62-1.045 2.68-1.045s1.94.355 2.68 1.045c.74.691 1.1 1.599 1.1 2.645 0 1.045-.38 1.933-1.1 2.643m-4.18-1.045c.38.414.92.65 1.5.631.58 0 1.08-.217 1.5-.631.42-.434.62-.967.62-1.618s-.2-1.204-.62-1.618-.92-.632-1.5-.632c-.56 0-1.12.217-1.5.632-.42.414-.62.967-.62 1.618-.02.65.2 1.184.62 1.618m12.4 1.045c-.74.71-1.62 1.046-2.68 1.046s-1.94-.355-2.68-1.046c-.74-.69-1.1-1.598-1.1-2.643 0-1.046.36-1.934 1.1-2.645.74-.71 1.62-1.045 2.68-1.045s1.94.355 2.68 1.045c.74.691 1.1 1.599 1.1 2.645 0 1.045-.36 1.933-1.1 2.643m-4.16-1.045c.38.414.92.65 1.5.631.58 0 1.08-.217 1.5-.631.42-.434.62-.967.62-1.618s-.2-1.204-.62-1.618-.92-.632-1.5-.632c-.56 0-1.12.217-1.5.632-.42.414-.62.967-.62 1.618-.02.65.2 1.184.62 1.618m9.58 5.426c-.84 0-1.54-.217-2.1-.67-.56-.435-.98-.948-1.22-1.54l1.44-.592c.16.355.38.67.72.927s.72.395 1.18.395c.62 0 1.12-.197 1.48-.552.36-.375.54-.908.54-1.618v-.533h-.06c-.46.552-1.12.848-1.98.848-.96 0-1.8-.355-2.52-1.085-.7-.69-1.1-1.638-1.08-2.624-.02-.987.38-1.934 1.08-2.644.72-.73 1.56-1.086 2.52-1.086.42 0 .82.08 1.16.237.34.158.62.355.82.592H69v-.592h1.56v6.67c0 1.302-.34 2.269-1 2.9-.7.671-1.56.987-2.6.967m.12-4.795c.56 0 1.08-.217 1.44-.631.38-.434.58-.967.58-1.599 0-.65-.2-1.183-.58-1.617a1.9 1.9 0 0 0-1.44-.652c-.58 0-1.08.217-1.48.651s-.62.967-.62 1.618c0 .632.2 1.165.62 1.599s.9.631 1.48.631m6.26-9.668v10.911h-1.66V37.395zm4.52 11.128c-1.06 0-1.96-.355-2.66-1.065-.72-.71-1.06-1.599-1.06-2.644 0-1.086.34-1.973 1.04-2.664a3.44 3.44 0 0 1 2.52-1.046q.69 0 1.26.237c.36.138.7.355.96.631.24.237.44.474.62.75.14.237.26.474.38.73l.18.415-5.02 2.052c.38.75 1 1.124 1.82 1.124.76 0 1.38-.335 1.86-1.026l1.28.849c-.28.414-.68.809-1.22 1.144-.56.355-1.2.513-1.96.513m-2.1-3.828 3.36-1.38c-.1-.238-.26-.435-.54-.573a1.85 1.85 0 0 0-.86-.217c-.48 0-.94.197-1.36.592-.42.414-.62.927-.6 1.578M40.6 56.968c0 .987-.28 1.737-.82 2.25-.56.513-1.34.77-2.38.77h-1.68v-5.94h1.86c.96 0 1.7.257 2.24.77.5.513.78 1.223.78 2.15m-1.04.04c0-1.42-.68-2.131-2.02-2.131h-.86v4.321h.7c1.44-.02 2.18-.75 2.18-2.19M43.78 60.086c-.7 0-1.26-.197-1.66-.612-.4-.414-.6-.966-.6-1.677 0-.73.18-1.302.56-1.736.38-.415.88-.632 1.52-.632.6 0 1.08.178 1.42.533s.52.849.52 1.48v.513H42.5q.03.651.36 1.006t.96.355c.26 0 .52-.02.76-.078.24-.06.48-.139.74-.257v.77q-.36.177-.72.236c-.24.08-.52.1-.82.1m-.18-3.946c-.3 0-.56.098-.74.296s-.3.473-.34.848h2.08c0-.375-.1-.651-.28-.848q-.27-.297-.72-.296M47.68 60.007l-1.74-4.499h1.02l.92 2.625c.16.434.26.789.28 1.065h.04c.02-.197.12-.552.28-1.065l.92-2.625h1.04l-1.74 4.5zM53.16 60.086c-.7 0-1.26-.197-1.66-.612-.4-.414-.6-.966-.6-1.677 0-.73.18-1.302.56-1.736.38-.415.88-.632 1.52-.632.6 0 1.08.178 1.42.533s.52.849.52 1.48v.513h-3.04q.03.651.36 1.006t.96.355c.26 0 .52-.02.76-.078.24-.06.48-.139.74-.257v.77q-.36.177-.72.236c-.24.08-.52.1-.82.1m-.18-3.946c-.3 0-.56.098-.74.296s-.3.473-.34.848h2.06c0-.375-.1-.651-.28-.848-.16-.198-.4-.296-.7-.296M57 60.007h-.96v-6.334H57zM62.42 57.738c0 .73-.2 1.302-.58 1.717-.38.414-.92.611-1.6.611-.42 0-.8-.098-1.12-.276a2 2 0 0 1-.76-.809c-.18-.355-.26-.77-.26-1.243 0-.73.18-1.302.56-1.717.38-.414.92-.611 1.6-.611.66 0 1.18.217 1.56.631.42.434.6.987.6 1.697m-3.32 0c0 1.046.38 1.559 1.16 1.559.76 0 1.16-.513 1.16-1.559 0-1.026-.38-1.54-1.16-1.54-.4 0-.7.139-.88.395-.18.277-.28.652-.28 1.145M65.86 60.086c-.58 0-1.02-.197-1.34-.612h-.06c.04.375.06.612.06.691V62h-.96v-6.492h.78c.02.08.06.276.14.592h.04c.3-.454.76-.69 1.36-.69.56 0 1.02.197 1.32.611q.48.622.48 1.717t-.48 1.717c-.34.414-.78.631-1.34.631m-.24-3.887c-.38 0-.66.118-.84.335s-.26.573-.26 1.066v.138c0 .553.08.947.26 1.184s.46.375.86.375q.51 0 .78-.415c.18-.276.28-.65.28-1.164s-.1-.888-.26-1.144c-.22-.237-.48-.375-.82-.375M70.78 60.086c-.7 0-1.26-.197-1.66-.612-.4-.414-.6-.966-.6-1.677 0-.73.18-1.302.56-1.736.38-.415.88-.632 1.52-.632.6 0 1.08.178 1.42.533s.52.849.52 1.48v.513H69.5q.03.651.36 1.006t.96.355c.26 0 .52-.02.76-.078.24-.06.48-.139.74-.257v.77q-.36.177-.72.236c-.22.08-.5.1-.82.1m-.16-3.946c-.3 0-.56.098-.74.296s-.3.473-.34.848h2.06c0-.375-.1-.651-.28-.848-.16-.198-.4-.296-.7-.296M75.98 55.43c.2 0 .36.02.48.039l-.1.888c-.14-.04-.28-.04-.42-.04-.38 0-.7.119-.94.375-.24.257-.36.572-.36.967v2.348h-.96v-4.499h.76l.12.79h.04c.16-.277.34-.474.6-.632q.36-.237.78-.237M81.68 60.007h-.98v-5.11h-1.78v-.83h4.52v.83h-1.78v5.11zM88.32 57.738c0 .73-.2 1.302-.58 1.717-.38.414-.92.611-1.6.611-.42 0-.8-.098-1.12-.276a2 2 0 0 1-.76-.809c-.18-.355-.26-.77-.26-1.243 0-.73.18-1.302.56-1.717.38-.414.92-.611 1.6-.611.66 0 1.18.217 1.56.631.4.434.6.987.6 1.697m-3.32 0c0 1.046.38 1.559 1.16 1.559.76 0 1.16-.513 1.16-1.559 0-1.026-.38-1.54-1.16-1.54-.4 0-.7.139-.88.395-.2.277-.28.652-.28 1.145M93.48 57.738c0 .73-.2 1.302-.58 1.717-.38.414-.92.611-1.6.611-.42 0-.8-.098-1.12-.276a2 2 0 0 1-.76-.809c-.18-.355-.26-.77-.26-1.243 0-.73.18-1.302.56-1.717.38-.414.92-.611 1.6-.611.66 0 1.18.217 1.56.631.4.434.6.987.6 1.697m-3.32 0c0 1.046.38 1.559 1.16 1.559.76 0 1.16-.513 1.16-1.559 0-1.026-.38-1.54-1.16-1.54-.4 0-.7.139-.88.395-.2.277-.28.652-.28 1.145M95.56 60.007h-.96v-6.334h.96zM100 58.725q0 .651-.48 1.006c-.32.237-.78.355-1.4.355-.6 0-1.1-.099-1.46-.276v-.829c.54.237 1.04.375 1.5.375q.9 0 .9-.533a.39.39 0 0 0-.1-.276c-.06-.079-.18-.158-.32-.237-.16-.079-.36-.177-.64-.276-.52-.197-.88-.395-1.06-.612-.18-.197-.28-.453-.28-.789q0-.592.48-.888c.32-.217.74-.316 1.28-.316s1.04.099 1.52.316l-.32.71c-.5-.197-.9-.295-1.24-.295-.52 0-.76.138-.76.434 0 .138.06.256.2.355s.42.236.88.394c.38.138.64.277.82.395s.3.257.38.414c.06.158.1.355.1.573"/></svg>
